!!!OTL:Schritt, Trab, Galopp.
!!!OTL-incipit:HORCH WER REITET SO
!!!COM: G. F. Gaebler
!!!ARE: Europa, Mitteleuropa, Deutschland
!!!SCT: F0279
!!!TXL: @@DE
!!!YEM: Copyright 1995, estate of Helmut Schaffrath.
**kern	**text
*ICvox	*
!!Mixed meter: 4/4, 2/4
*M4/4	*
*met(c)	*
*k[b-]	*
*F:	*
=1	=1
!LO:TX:a:t=Mäßig bewegt.	!
!LO:TX:a:t=Ges. v. H. Langer	!
{4f	1._Horch,
8r	.
8c	wer
8fL	rei-
8gJ	.
8aL	-tet
8b-J	.
=2	=2
2cc/;	ſo?
2r}	.
=3	=3
{4f	Horch,
8r	.
8c	wer
8fL	ruft
8gJ	.
8aL	ho
8b-J	.
=4	=4
2cc/;	ho!
4r	.
8r}	.
{8cc	Ein
=5	=5
*M2/4	*
8bn/	Rei-
8g	-ter
8a	kommt
8b/	mit
=6	=6
8cc/L	Wei-
8b-J	.
8g}	-le,
{8cc/	ſein
=7	=7
8dd/	Pferd
8g	hat
8a	kei-
8bn	-ne
=8	=8
8dd/L	Ei-
8ccJ	.
8cc/}	-le,
{8cc/	es
=9	=9
8ff/	geht,
8ff/	es
8ee/	geht,
8ee/	es
=10	=10
8dd/	geht,
8dd/	es
8cc/}	geht,
{8cc/	und
=11	=11
8dd/	wenns
8dd/	den
8cc/	Rei-
8cc/	-ter
=12	=12
8b-/	nicht
8b-/	ver-
8a}	-ſteht,
{8a	ruft
=13	=13
8g	der
8a	Ho-
8b-/	-ho,
8bn/	ho-
=14	=14
4cc/	-ho!
8r}	.
{8b-X/	ruft
=15	=15
8a	der
8cc/	Ho-
8g	-ho,
8cc/	ho-
=16	=16
4f	-ho!
4r}	.
==	==
!!!AGN: Jugend - Lied, Spiel
!!!ONB: ESAC (Essen Associative Code) Database: FINK
!!!AMT: simple quadruple
!!!AIN: vox
!!!EED: Helmut Schaffrath
!!!EEV: 1.0
!!!GTL: Jugendlieder
!!!source: Musikalischer Hausschatz der Deutschen. Eine Sammlung von über 1000 Liedern und Gesängen mit Singstimmen und Klavierbegleitung. Leipzig, Litterarisches Verlags-Haus.
!!!page: 167
!!!ENC: Anna Maria Matuszewska
!!!EEV: 2025/03/13
*-	*-
